X: 24353
T: Louis'
R: waltz
M: 3/4
K: Dmajor
F2 D>F A*d|f2- f>d e>f|g2 b*g f>g|B2- B>d c>B|
A2 E>F G>A|c2 B2 A2|F2- F>D F>B|A2 A>B A>G|
F2 D*F A>d|f4 e>f|g2 b>g f>g|B2- B>d c>B|
A2 E>F G>A|c2 B2 c2|d2- d>A F*A|D2- D>A B>A||
G2- G>A B>A|c2- c>A B>A|F2- F>D F>A|d2 c2 d2|
e4 e>f|(3efe (3ABA (3GAG|F2- F*D F>B|A2 E2 F2|
G2- G>F G>A|c2 B2 A2|d2- d>D F>A|d2 c2 d2|
E2- ED EF|G2 (3FGF E2|D2 CD FA|d2- d||
A2 A>^G A>B|c2 c>A B>A|F2 F>D F>A|d2 d>c d>^d|
e2 e>^d e>f|e2 A2 G2|F2 F>E F>G|F2 E2 D2|
G2 G>F G>A|c2 c>A B>A|F2 F>D F>A|d2 c2 B2|
e*E- E>D E>F|G2 F2 E2|D2 F2 A2|d2- d||

